X:166
T:Reel 166
M:4/4
K:Bmin
L:1/8
FE|D>B, (3B,B,B, D>B, (3B,B,B, |D>B, (3B,^A,B, F>B, (3B,B,B, |C>A, (3A,A,A, A,>C (3CDE |E>A, (3A,A,A, E>CA,CEC:||2C>C (3A,CA, GEFE|D>B (3BAB d>B (3BAB |d>B (3BAB dBAB|c>A (3AAA E>A, (3A,B,A, |CEAE AEAE| (3DED BD ADFD| (3DED FA BFGF|E>A, (3CA,A, C>A, (3A,A,A, |CEGE ABAG|F>D (3DED FBAD| (3F, (3F,F,E, F,>D (3DCD |G>E (3EEC A,CDC|B,F,^G,^A, B,2|
